usr/share/icons/biglinux-icons-material/symbolic/actions/path-break-apart-symbolic.svg

<?xml version="1.0" encoding="UTF-8" standalone="no"?>
<svg
   xmlns:dc="http://purl.org/dc/elements/1.1/"
   xmlns:cc="http://creativecommons.org/ns#"
   xmlns:rdf="http://www.w3.org/1999/02/22-rdf-syntax-ns#"
   xmlns:svg="http://www.w3.org/2000/svg"
   xmlns="http://www.w3.org/2000/svg"
   version="1.1"
   width="16"
   height="16"
   id="svg7435">
  <defs
     id="defs7437" />
  <metadata
     id="metadata7440">
    <rdf:RDF>
      <cc:Work
         rdf:about="">
        <dc:format>image/svg+xml</dc:format>
        <dc:type
           rdf:resource="http://purl.org/dc/dcmitype/StillImage" />
        
      </cc:Work>
    </rdf:RDF>
  </metadata>
  <path
     id="path8335-7-6-2-0"
     d="M 10.17383,0.001953 A 6.0000006,6.0000022 0 0 0 4.08984,5 H 1 C 0.446,5 0,5.446 0,6 v 9 c 0,0.554 0.446,1 1,1 h 9 c 0.554,0 1,-0.446 1,-1 V 11.912109 A 6.0000006,6.0000022 0 0 0 16,6 6.0000006,6.0000022 0 0 0 10.17383,0.001953 Z m -0.0293,1 a 5.0000005,5.0000018 0 0 1 0.002,0 5.0000005,5.0000018 0 0 1 0.99023,0.128906 5.0000005,5.0000018 0 0 1 2.19531,1.140625 5.0000005,5.0000018 0 0 1 0.67383,0.736328 5.0000005,5.0000018 0 0 1 0.2793,0.414063 5.0000005,5.0000018 0 0 1 0,0.002 5.0000005,5.0000018 0 0 1 0.42578,0.902344 A 5.0000005,5.0000018 0 0 1 15,6.00005 a 5.0000005,5.0000018 0 0 1 -0.39453,1.947266 5.0000005,5.0000018 0 0 1 -0.2168,0.449218 5.0000005,5.0000018 0 0 1 0,0.0019 5.0000005,5.0000018 0 0 1 -0.0996,0.160157 5.0000005,5.0000018 0 0 1 -0.46289,0.662109 5.0000005,5.0000018 0 0 1 -1.55859,1.236328 5.0000005,5.0000018 0 0 1 -3.88477,0.275391 5.0000005,5.0000018 0 0 1 -0.46094,-0.183594 5.0000005,5.0000018 0 0 1 -0.002,-0.002 A 5.0000005,5.0000018 0 0 1 6.31442,9.380809 5.0000005,5.0000018 0 0 1 6.24602,9.298779 5.0000005,5.0000018 0 0 1 5.99406,8.992139 5.0000005,5.0000018 0 0 1 5.71672,8.581982 5.0000005,5.0000018 0 0 1 5.71472,8.578082 5.0000005,5.0000018 0 0 1 5.28894,7.675739 5.0000005,5.0000018 0 0 1 5.14636,7.201129 5.0000005,5.0000018 0 0 1 5.08776,6.898395 5.0000005,5.0000018 0 0 1 5.05066,6.706989 5.0000005,5.0000018 0 0 1 5.00376,6.212848 a 5.0000005,5.0000018 0 0 1 0,-0.0039 5.0000005,5.0000018 0 0 1 -0.004,-0.208927 5.0000005,5.0000018 0 0 1 0.0254,-0.498047 5.0000005,5.0000018 0 0 1 0,-0.002 5.0000005,5.0000018 0 0 1 0.0742,-0.492187 5.0000005,5.0000018 0 0 1 0,-0.002 5.0000005,5.0000018 0 0 1 0.12305,-0.482421 5.0000005,5.0000018 0 0 1 0,-0.0019 A 5.0000005,5.0000018 0 0 1 5.39428,4.052716 5.0000005,5.0000018 0 0 1 5.8728,3.175762 5.0000005,5.0000018 0 0 1 6.17553,2.779278 5.0000005,5.0000018 0 0 1 7.29858,1.79295 5.0000005,5.0000018 0 0 1 8.18725,1.339825 5.0000005,5.0000018 0 0 1 10.14428,1.001934 Z M 1.5,6 H 4 a 6.0000006,6.0000022 0 0 0 6,5.996094 V 14.5 C 10,14.777 9.777,15 9.5,15 h -8 C 1.223,15 1,14.777 1,14.5 v -8 C 1,6.223 1.223,6 1.5,6 Z"
     style="opacity:1;vector-effect:none;fill:#dedede;fill-opacity:1;stroke:none;stroke-width:1;stroke-linecap:butt;stroke-linejoin:miter;stroke-miterlimit:4;stroke-dasharray:none;stroke-dashoffset:0;stroke-opacity:1;marker:none;paint-order:normal" />
</svg>

<svg xmlns="http://www.w3.org/2000/svg" width="16" height="16"><path d="M10.174.002A6 6 0 0 0 4.09 5H1c-.554 0-1 .446-1 1v9c0 .554.446 1 1 1h9c.554 0 1-.446 1-1v-3.088A6 6 0 0 0 16 6 6 6 0 0 0 10.174.002Zm-.03 1a5 5 0 0 1 .003 0 5 5 0 0 1 .99.129 5 5 0 0 1 2.195 1.14 5 5 0 0 1 .674.737 5 5 0 0 1 .28.414 5 5 0 0 1 0 .002 5 5 0 0 1 .425.902A5 5 0 0 1 15 6a5 5 0 0 1-.395 1.947 5 5 0 0 1-.216.45 5 5 0 0 1 0 .001 5 5 0 0 1-.1.16 5 5 0 0 1-.463.663 5 5 0 0 1-1.558 1.236 5 5 0 0 1-3.885.275 5 5 0 0 1-.461-.183 5 5 0 0 1-.002-.002A5 5 0 0 1 6.314 9.38a5 5 0 0 1-.068-.082 5 5 0 0 1-.252-.307 5 5 0 0 1-.277-.41 5 5 0 0 1-.002-.004 5 5 0 0 1-.426-.902 5 5 0 0 1-.143-.475 5 5 0 0 1-.058-.303 5 5 0 0 1-.037-.191 5 5 0 0 1-.047-.494 5 5 0 0 1 0-.004A5 5 0 0 1 5 6a5 5 0 0 1 .025-.498 5 5 0 0 1 0-.002 5 5 0 0 1 .074-.492 5 5 0 0 1 0-.002 5 5 0 0 1 .123-.483 5 5 0 0 1 0-.002 5 5 0 0 1 .172-.468 5 5 0 0 1 .479-.877 5 5 0 0 1 .303-.397 5 5 0 0 1 1.123-.986 5 5 0 0 1 .888-.453 5 5 0 0 1 1.957-.338ZM1.5 6H4a6 6 0 0 0 6 5.996V14.5c0 .277-.223.5-.5.5h-8a.499.499 0 0 1-.5-.5v-8c0-.277.223-.5.5-.5Z" style="opacity:1;vector-effect:none;fill:#dedede;fill-opacity:1;stroke:none;stroke-width:1;stroke-linecap:butt;stroke-linejoin:miter;stroke-miterlimit:4;stroke-dasharray:none;stroke-dashoffset:0;stroke-opacity:1;marker:none;paint-order:normal"/></svg>
